X: 13886
T: Fox On The Prowl, The
R: reel
M: 4/4
K: Dmajor
A|defd eA~A2|BAFA dAFB|ABde fa~a2|bfaf edBA|
defd eA~A2|BAFA dAFB|ABde fa~a2|edef d3:|
|:e|faa2 d3e|faaf eA~A2|BAFA defg|bfaf fee2|
bf~f2 afef|defd efdB|~A2FB A2af|edef d3:|

